X:7905
T:The low-backed car
C:Samuel Lover
Z:Transcribed by Frank Nordberg - http://www.musicaviva.com
F:http://abc.musicaviva.com/tunes/lover-samuel/the-low-backed-car.abc
M:6/8
L:1/8
K:C
"^Allegretto"c|c2e e2g|f3 d2B|c2e g2g|g3 z2e|
f2f d2d|e2e c2e|f2d c2B|c3 z2 c|
c2f f2a|a2g g2c|c2f f2a|g3 z2c|
c2c' c'2a|a2g gfe|d2c d2e|Hg3 He2d|
cAG c2c|c3 z2e|dcA d2d|d3 zef|
gfe gfe|c'ba ged|cAG c2c|c3- cz z |]
W:
W:
W:  From Musica Viva - http://www.musicaviva.com
W:  the Internet center for free sheet music downloads.
